!!key: tele-40-07-Fan-All-02-Flute
!!!COM: Telemann, Georg Philipp
!!!CDT: 1681/03/14-1767/06/25
!!!CBL: Magdeburg
!!!CDL: Hamburg
!!!CNT: German
!!!TWV: 40:7
!!!TWV-genre: 40
!!!TWV-work: 7
!!!OPR: 12 Fantasias for transverse flute without bass
!!!OTL: Fantasia 6
!!!OMD: Allegro
!!!OMV: 2
!!!ODT: ca. 1732–1733
!!!AST: Late Baroque
!!!AGN: Fantasia
!!!AMT: Simple quadruple
!!!AIN: Transverse flute
**kern	**dynam
*ICww	*
*Iflt	*
*clefG2	*
*k[b-]	*
*d:	*
*M4/4	*
*met(c)	*
=1	=1
4r	.
4dd	.
4cc#X	.
4ee	.
=2	=2
4a	.
2dd	.
4cc#X	.
=3	=3
8ddL	.
16ee	.
16ffJ	.
8eeL	.
8ddJ	.
(8gg#XL	.
8aa)	.
8a	.
8ffJ	.
=4	=4
8g#XL	.
8ee	.
8bn	.
8dd#XJ	.
8eL	.
8eeJ	.
16aL	.
16cc	.
16b	.
16ccJ	.
=5	=5
16ddnL	.
16bn	.
16cc	.
16ddJ	.
8g#XL	.
8eeJ	.
16aL	.
16cc	.
16b	.
16ccJ	.
8aaL	.
8ggnJ	.
!!LO:LB:g=original
=6	=6
8ddL	.
8ff#X	.
8cc	.
8aaJ	.
8b-XL	.
8ddd	.
8a	.
8cccJ	.
=7	=7
8gL	.
16bb-	.
16aa	.
8gg	.
8ffnJ	.
8ccL	.
8ee	.
8b-	.
8ggJ	.
=8	=8
8aL	.
8ccc	.
8g	.
8bb-J	.
8fL	.
16aa	.
16ggJ	.
8ffL	.
8bnJ	.
=9	=9
8eeL	.
8cc	.
8gg	.
8bnJ	.
8ccL	.
8b-XJ	.
16ffL	.
16a	.
16g	.
16aJ	.
!!LO:LB:g=original
=10	=10
16b-L	.
16g	.
16a	.
16b-J	.
8eeL	.
8ccJ	.
8fL	.
16ff	.
16ee	.
8ff	.
8fJ	.
=11	=11
4r	.
4cc	.
4bn	.
4dd	.
=12	=12
4g	.
16ccL	.
16ee	.
16dd	.
16eeJ	.
16ffL	.
16dd	.
16ee	.
16ffJ	.
8bnL	.
8ggJ	.
=13	=13
8ccL	.
8eeJ	.
16aL	.
16cc	.
16bn	.
16ccJ	.
16ddL	.
16b	.
16cc	.
16ddJ	.
8g#XL	.
8eeJ	.
!!LO:LB:g=original
=14	=14
8aL	.
8ccJ	.
16fL	.
16a	.
16gn	.
16aJ	.
16b-XL	.
16g	.
16a	.
16b-J	.
8eL	.
8ccJ	.
=15	=15
16fL	.
16cc	.
16dd	.
16ee-XJ	.
16f#XL	.
16ee-	.
16dd	.
16ccJ	.
8gL	.
8b-J	.
4gg	.
=16	=16
4ff#X	.
4aa	.
4dd	.
8gL	.
8ee-XJ	.
=17	=17
8f#X\L	.
8dd	.
8a	.
8cc#XJ	.
8dL	.
8ddJ	.
16gL	.
(16b-	.
16a	.
16b-)J	.
!!LO:LB:g=original
=18	=18
16ccnL	.
16a	.
16b-	.
16ccJ	.
8f#XL	.
8ddJ	.
8gL	.
16gg	.
16ff#X	.
8gg	.
8gJ	.
=19	=19
8r	.
(8bb-L	.
8aa	.
8gg)J	.
8fnL	.
(8aa	.
8gg	.
8ff)J	.
=20	=20
8eL	.
(8gg	.
8ff	.
8ee)J	.
8d\L	.
(8ff	.
8ee	.
8dd)J	.
=21	=21
16aL	.
16cc#X	.
16dd	.
16eeJ	.
16aL	.
16dd	.
16ee	.
16ffJ	.
8aL	.
16ee	.
16ddJ	.
16cc#L	.
16dd	.
8eeJ	.
!!LO:LB:g=original
=22	=22
8r	.
(8bb-L	p
8aa	.
8gg)J	.
8fL	.
(8aa	.
8gg	.
8ff)J	.
=23	=23
8eL	.
(8gg	.
8ff	.
8ee)J	.
8d\L	.
(8ff	.
8ee	.
8dd)J	.
=24	=24
16aL	.
16cc#X	.
16dd	.
16eeJ	.
16aL	.
16dd	.
16ee	.
16ffJ	.
8aL	.
16ee	.
16ddJ	.
16cc#L	.
16dd	.
8eeJ	.
=25	=25
4d	f
4ddd	.
4ccc#X	.
4eee	.
!!LO:LB:g=original
=26	=26
4aa	.
8ddL	.
8bb-J	.
8cc#XL	.
8aaJ	.
8eeL	.
8gg#XJ	.
=27	=27
8aL	.
8aaJ	.
16ddL	.
16ff	.
16ee	.
16ffJ	.
16ggnL	.
16ee	.
16ff	.
16ggJ	.
8cc#XL	.
8aaJ	.
=28	=28
16ddL	.
16ff	.
16ee	.
16ffJ	.
16ggL	.
16bn	.
16a	.
16bJ	.
16ccnL	.
16ee	.
16dd	.
16eeJ	.
16ffL	.
16a	.
16g	.
16aJ	.
!!LO:LB:g=original
=29	=29
16b-XL	.
16dd	.
16cc#X	.
16ddJ	.
16ee/L	.
16g	.
16f	.
16gJ	.
16aL	.
16cc#	.
16bn	.
16cc#J	.
8ddL	.
8fJ	.
=30	=30
8gL	.
8ee	.
8a	.
8cc#XJ	.
16ddL	.
16ee	.
16ff	.
16ggJ	.
8aaL	.
8fJ	.
=31	=31
8gL	.
8ee	.
8a	.
8cc#XJ	.
8ddL	.
16ddd	.
16ccc#XJ	.
8dddL	.
8fJ	.
=32	=32
4g	.
4a	.
4d	.
4r	.
==	==
*-	*-
!!!RTL1: G. PH. Telemann: Twelve Fantasias for Flute without Bass TWV 40:2-13
!!!RPN1: D'Arcangelo, Rita
!!!RMM1: Da Vinci Classics
!!!RC#1: DV-C00440
!!!RRD1: 2022
!!!RLC1: Andreaskirche, Berlin, Germany
!!!RDT1: 16 September 2020, 17 September 2020
!!!RT#1: 6
!!!RTL2: The Telemann Files: 12 Fantasies for Solo Flute
!!!RPN2: Choi, Jasmine
!!!RMM2: Austrian Gramophone
!!!RC#2: AG0001
!!!RRD2: February 2015
!!!RLC2: LeFrak Hall, Queens, USA
!!!RDT2: 9 June 2014, 10 June 2014
!!!RT#2: 6
!!!RTL3: Georg Philipp Telemann: Twelve Fantasies for Flute
!!!RPN3: Robertello, Thomas
!!!RMM3: Delos
!!!RC#3: DE3396
!!!RRD3: 1 June 2009
!!!RLC3: Clear Creek Recording, Keene, California
!!!RDT3: Unknown
!!!RT#3: 6
